assets/icons/heart-pulse.svg

<svg width="25" height="25" viewBox="0 0 25 25" fill="none" xmlns="http://www.w3.org/2000/svg">
<g clip-path="url(#clip0_1_128)">
<mask id="mask0_1_128" style="mask-type:luminance" maskUnits="userSpaceOnUse" x="0" y="0" width="25" height="25">
<path d="M24.6667 0.666382H0.666656V24.6664H24.6667V0.666382Z" fill="white"/>
</mask>
<g mask="url(#mask0_1_128)">
<path fill-rule="evenodd" clip-rule="evenodd" d="M19.5785 3.84945C20.9029 4.17369 22.0735 4.90887 22.9022 5.93691C23.7761 7.01809 24.2379 8.36931 24.2379 9.84404C24.2379 11.9664 22.8974 14.2958 20.2541 16.7672C18.1002 18.781 15.5538 20.4303 14.2297 21.2339C13.7629 21.5161 13.2201 21.666 12.6658 21.666C12.1115 21.666 11.5687 21.5161 11.1019 21.2339C9.77672 20.4303 7.23143 18.781 5.07748 16.7672C2.43418 14.2948 1.09373 11.9664 1.09373 9.84404C1.09373 8.36931 1.55556 7.01809 2.42942 5.93691C3.25809 4.90887 4.42867 4.17369 5.75312 3.84945C7.07756 3.52521 8.47899 3.63076 9.73225 4.14912C10.854 4.6037 11.8545 5.37433 12.6658 6.39949C13.4772 5.37683 14.4776 4.6062 15.5993 4.14912C16.8526 3.63076 18.254 3.52521 19.5785 3.84945ZM18.3283 7.43211C18.1854 7.28991 17.9858 7.22006 17.7854 7.24209C17.5849 7.26411 17.4053 7.37564 17.2966 7.54551L14.4125 12.0534L12.1727 10.1968C12.0531 10.0977 11.9026 10.0434 11.7473 10.0434H7.90372C7.53552 10.0434 7.23706 10.3419 7.23706 10.7101C7.23706 11.0783 7.53552 11.3768 7.90372 11.3768H11.5069L14.1423 13.5612C14.2893 13.6831 14.4817 13.736 14.6705 13.7066C14.8592 13.6772 15.0263 13.5681 15.1293 13.4072L17.9742 8.96044L21.1486 12.1179C21.4097 12.3776 21.8318 12.3764 22.0914 12.1154C22.3511 11.8543 22.3499 11.4322 22.0889 11.1726L18.3283 7.43211Z" fill="white"/>
</g>
</g>
<defs>
<clipPath id="clip0_1_128">
<rect width="24" height="24" fill="white" transform="translate(0.666656 0.666382)"/>
</clipPath>
</defs>
</svg>

<svg xmlns="http://www.w3.org/2000/svg" width="25" height="25" fill="none" viewBox="0 0 25 25"><g clip-path="url(#a)"><mask id="b" width="25" height="25" x="0" y="0" maskUnits="userSpaceOnUse" style="mask-type:luminance"><path fill="#fff" d="M24.667.666h-24v24h24z"/></mask><g mask="url(#b)"><path fill="#fff" fill-rule="evenodd" d="M19.579 3.85a6.13 6.13 0 0 1 3.323 2.087c.874 1.081 1.336 2.432 1.336 3.907 0 2.122-1.34 4.452-3.984 6.923-2.154 2.014-4.7 3.663-6.024 4.467a3.03 3.03 0 0 1-1.564.432c-.555 0-1.097-.15-1.564-.432-1.325-.804-3.87-2.453-6.025-4.467-2.643-2.472-3.983-4.8-3.983-6.923 0-1.475.462-2.826 1.335-3.907a6.13 6.13 0 0 1 3.324-2.088 6.44 6.44 0 0 1 3.98.3c1.121.455 2.121 1.225 2.933 2.25.811-1.022 1.812-1.793 2.933-2.25a6.44 6.44 0 0 1 3.98-.3m-1.25 3.582a.666.666 0 0 0-1.032.114l-2.885 4.507-2.24-1.856a.67.67 0 0 0-.425-.154H7.904a.667.667 0 0 0 0 1.334h3.603l2.635 2.184a.667.667 0 0 0 .987-.154l2.845-4.447 3.175 3.158a.667.667 0 1 0 .94-.945z" clip-rule="evenodd"/></g></g><defs><clipPath id="a"><path fill="#fff" d="M.667.666h24v24h-24z"/></clipPath></defs></svg>
